T: Master Crowley's
M: 4/4
L: 1/8
K: Ddor
A,D (3DDD A,DFD | DCA,C G,CEC | A,D (3DDD A,DFD | EGcG EDD2 |
A,D (3DDD A,DFD | DCA,C G,CEC | A,D (3DDD A,DFD | EGcG EDD2 :|
D2 f2 efdf | ecgc ac gc | A2 f2 efdf |ecGE ADD2 |
D2 f2 efdf | ecgc ac gc | DEFG AGAc | GEcG EDD2 :|
